(DOG_TAG)
(T1 D=0.125 CR=0. TAPER=40DEG - ZMIN=0. - CHAMFER MILL)
G0 G90 G94 G17
G20
(WHEN USING FUSION 360 FOR PERSONAL USE, THE FEEDRATE OF)
(RAPID MOVES IS REDUCED TO MATCH THE FEEDRATE OF CUTTING)
(MOVES, WHICH CAN INCREASE MACHINING TIME. UNRESTRICTED RAPID)
(MOVES ARE AVAILABLE WITH A FUSION 360 SUBSCRIPTION.)
M5
G53 G0 Z0.

(PROJECT1)
T1
M3 S16500
G90 G94 G17
G55
M8
G0 X-0.6279 Y-0.2125
Z0.6
G1 Z0.08 F10.
Z0.0125 F2.
Y-0.2122 Z0.0097 F10.
Y-0.2113 Z0.0071
Y-0.2098 Z0.0047
Y-0.2078 Z0.0027
Y-0.2054 Z0.0012
Y-0.2028 Z0.0003
Y-0.2 Z0.
Y-0.1893
X-0.6116 Y-0.1892
X-0.6014 Y-0.1882
X-0.5965 Y-0.1871
X-0.5934 Y-0.186
X-0.5891 Y-0.1837
X-0.5841 Y-0.1796
X-0.578 Y-0.1735
X-0.5741 Y-0.1617
X-0.5723 Y-0.1526
X-0.5716 Y-0.1402
Y0.1264
X-0.5718 Y0.1368
X-0.5724 Y0.1455
X-0.574 Y0.1527
X-0.5764 Y0.1596
X-0.5797 Y0.1677
X-0.587 Y0.1735
X-0.5923 Y0.1765
X-0.5964 Y0.1781
X-0.6023 Y0.1794
X-0.6131 Y0.1804
X-0.6279
Y0.1911
X-0.4671 Y0.191
X-0.4316 Y0.1902
X-0.4131 Y0.1889
X-0.3979 Y0.187
X-0.3828 Y0.1843
X-0.3649 Y0.1799
X-0.3353 Y0.1712
X-0.3132 Y0.1587
X-0.3017 Y0.1507
X-0.2932 Y0.1439
X-0.2835 Y0.1339
X-0.2756 Y0.1242
X-0.2617 Y0.1048
X-0.2497 Y0.0794
X-0.2441 Y0.0649
X-0.2404 Y0.0531
X-0.2374 Y0.038
X-0.2356 Y0.0226
X-0.2339 Y-0.0025
X-0.2362 Y-0.0289
X-0.2379 Y-0.0429
X-0.241 Y-0.0595
X-0.2443 Y-0.0712
X-0.2479 Y-0.0812
X-0.2529 Y-0.0922
X-0.2612 Y-0.1068
X-0.2734 Y-0.1248
X-0.2835 Y-0.1389
X-0.3046 Y-0.1552
X-0.3223 Y-0.1678
X-0.3347 Y-0.1753
X-0.3448 Y-0.1806
X-0.3537 Y-0.1846
X-0.3643 Y-0.1884
X-0.3766 Y-0.1919
X-0.3908 Y-0.1947
X-0.406 Y-0.1969
X-0.434 Y-0.1991
X-0.4562 Y-0.2
X-0.6279
X-0.6306 Z0.0003
X-0.6333 Z0.0012
X-0.6357 Z0.0027
X-0.6376 Z0.0047
X-0.6391 Z0.0071
X-0.64 Z0.0097
X-0.6404 Z0.0125
Z0.2
X-0.5285 Y-0.1694
Z0.08
Z0.0125 F2.
X-0.5282 Z0.0097 F10.
X-0.5273 Y-0.1696 Z0.0071
X-0.5258 Y-0.1699 Z0.0047
X-0.5239 Y-0.1703 Z0.0027
X-0.5216 Y-0.1707 Z0.0012
X-0.519 Y-0.1712 Z0.0003
X-0.5162 Y-0.1717 Z0.
X-0.4935 Y-0.1761
X-0.4812 Y-0.1778
X-0.4642 Y-0.1793
X-0.4548 Y-0.1798
X-0.433 Y-0.1775
X-0.4221 Y-0.176
X-0.4071 Y-0.1727
X-0.397 Y-0.1693
X-0.3874 Y-0.1651
X-0.3795 Y-0.1606
X-0.3668 Y-0.1519
X-0.35 Y-0.1381
X-0.3438 Y-0.1328
X-0.3303 Y-0.1134
X-0.3217 Y-0.1001
X-0.3158 Y-0.0891
X-0.3112 Y-0.0786
X-0.3076 Y-0.0677
X-0.305 Y-0.0572
X-0.3022 Y-0.0387
X-0.3002 Y-0.0137
X-0.2997 Y-0.0053
X-0.3014 Y0.0199
X-0.3027 Y0.0327
X-0.3053 Y0.0481
X-0.3086 Y0.0608
X-0.3122 Y0.0709
X-0.3178 Y0.0827
X-0.324 Y0.0936
X-0.3371 Y0.1131
X-0.3438 Y0.1224
X-0.3609 Y0.1365
X-0.3699 Y0.1434
X-0.383 Y0.1518
X-0.3926 Y0.1567
X-0.4026 Y0.1606
X-0.413 Y0.1633
X-0.4268 Y0.166
X-0.4487 Y0.1684
X-0.4571 Y0.1691
X-0.4751 Y0.168
X-0.4884 Y0.1665
X-0.5076 Y0.1627
X-0.5162 Y0.1608
Y-0.1717
Y-0.1745 Z0.0003
Y-0.1772 Z0.0012
Y-0.1795 Z0.0027
Y-0.1815 Z0.0047
Y-0.183 Z0.0071
Y-0.1839 Z0.0097
Y-0.1842 Z0.0125
Z0.2
X-0.1988 Y-0.2954
Z0.08
Z0.0125 F2.
X-0.1986 Y-0.2951 Z0.0097 F10.
X-0.1981 Y-0.2943 Z0.0071
X-0.1974 Y-0.293 Z0.0047
X-0.1964 Y-0.2913 Z0.0027
X-0.1952 Y-0.2893 Z0.0012
X-0.1939 Y-0.287 Z0.0003
X-0.1925 Y-0.2846 Z0.
X-0.1899 Y-0.28
X-0.1865 Y-0.2757
X-0.1815 Y-0.2724
X-0.1763 Y-0.2699
X-0.1691 Y-0.2687
X-0.1647 Y-0.2683
X-0.155 Y-0.2697
X-0.15 Y-0.2709
X-0.1317 Y-0.2773
X-0.1243 Y-0.279
X-0.1191 Y-0.278
X-0.1141 Y-0.2763
X-0.1085 Y-0.2725
X-0.1054 Y-0.2701
X-0.0981 Y-0.261
X-0.0933 Y-0.2539
X-0.0876 Y-0.2421
X-0.0661 Y-0.1896
X-0.1609 Y0.0097
X-0.1683 Y0.0223
X-0.1776 Y0.0355
X-0.1813 Y0.0401
X-0.1866 Y0.0454
X-0.1959 Y0.0499
X-0.2043 Y0.0525
X-0.208 Y0.0535
Y0.0642
X-0.0848
Y0.0535
X-0.0961 Y0.0533
X-0.1011 Y0.0524
X-0.1059 Y0.0505
X-0.1103 Y0.0479
X-0.1131 Y0.0449
X-0.1152 Y0.0416
X-0.1165 Y0.0364
X-0.1168 Y0.0339
X-0.1152 Y0.0243
X-0.1131 Y0.0164
X-0.1088 Y0.0061
X-0.0508 Y-0.1144
X-0.043 Y-0.1305
X0.0161 Y0.0154
X0.0194 Y0.0255
X0.0206 Y0.0328
X0.021 Y0.0388
X0.0206 Y0.0429
X0.019 Y0.0466
X0.0158 Y0.0496
X0.0118 Y0.0516
X0.0032 Y0.0532
X-0.0055 Y0.0535
Y0.0642
X0.0804
Y0.0535
X0.072 Y0.052
X0.064 Y0.0489
X0.057 Y0.043
X0.0513 Y0.0359
X0.0449 Y0.0221
X-0.0661 Y-0.2499
X-0.0744 Y-0.2676
X-0.0796 Y-0.2767
X-0.0845 Y-0.284
X-0.0901 Y-0.2909
X-0.0984 Y-0.2996
X-0.1069 Y-0.3079
X-0.1193 Y-0.3163
X-0.1264 Y-0.3202
X-0.1325 Y-0.3228
X-0.1388 Y-0.3246
X-0.1483 Y-0.3264
X-0.1555 Y-0.3275
X-0.1631 Y-0.3268
X-0.1704 Y-0.3252
X-0.1765 Y-0.3223
X-0.1834 Y-0.3177
X-0.1879 Y-0.3129
X-0.1914 Y-0.3076
X-0.1934 Y-0.3017
X-0.1944 Y-0.2952
X-0.1939 Y-0.2897
X-0.1925 Y-0.2846
X-0.1919 Y-0.2819 Z0.0003
X-0.1912 Y-0.2793 Z0.0012
X-0.1906 Y-0.277 Z0.0027
X-0.1901 Y-0.2751 Z0.0047
X-0.1898 Y-0.2736 Z0.0071
X-0.1895 Y-0.2727 Z0.0097
Y-0.2724 Z0.0125
Z0.2
X0.1064 Y-0.2125
Z0.08
Z0.0125 F2.
Y-0.2122 Z0.0097 F10.
Y-0.2113 Z0.0071
Y-0.2098 Z0.0047
Y-0.2078 Z0.0027
Y-0.2054 Z0.0012
Y-0.2028 Z0.0003
Y-0.2 Z0.
Y-0.1896
X0.1173 Y-0.1892
X0.1235 Y-0.1882
X0.1312 Y-0.1859
X0.1356 Y-0.1823
X0.1374 Y-0.1805
X0.1404 Y-0.1758
X0.1416 Y-0.1735
X0.1438 Y-0.1638
X0.1449 Y-0.1555
X0.1453 Y-0.1403
X0.1452 Y0.1271
X0.1437 Y0.15
X0.143 Y0.1561
X0.1412 Y0.1621
X0.1383 Y0.1667
X0.1368 Y0.1686
X0.1328 Y0.1709
X0.1315 Y0.1715
X0.1254 Y0.1723
X0.1157 Y0.1709
X0.1064 Y0.1677
X0.1015 Y0.1778
X0.1802 Y0.2101
X0.1932
Y-0.1486
X0.1938 Y-0.1584
X0.1956 Y-0.1681
X0.1968 Y-0.1732
X0.1998 Y-0.1781
X0.2013 Y-0.1802
X0.2057 Y-0.1839
X0.2079 Y-0.1854
X0.2162 Y-0.1879
X0.2232 Y-0.1892
X0.2348 Y-0.1896
X0.2359
Y-0.2
X0.1064
X0.1036 Z0.0003
X0.101 Z0.0012
X0.0986 Z0.0027
X0.0966 Z0.0047
X0.0951 Z0.0071
X0.0942 Z0.0097
X0.0939 Z0.0125
Z0.2
X0.2747 Y-0.1704
Z0.08
Z0.0125 F2.
X0.2746 Y-0.1701 Z0.0097 F10.
X0.2744 Y-0.1692 Z0.0071
X0.274 Y-0.1677 Z0.0047
X0.2735 Y-0.1658 Z0.0027
X0.2729 Y-0.1635 Z0.0012
X0.2723 Y-0.1609 Z0.0003
X0.2716 Y-0.1583 Z0.
X0.271 Y-0.156
X0.2699 Y-0.1479
X0.269 Y-0.1374
X0.2699 Y-0.1271
X0.271 Y-0.1201
X0.2746 Y-0.1105
X0.2777 Y-0.104
X0.2874 Y-0.0918
X0.2943 Y-0.0846
X0.3013 Y-0.0787
X0.3134 Y-0.0705
X0.3202 Y-0.0664
X0.3453 Y-0.0538
X0.368 Y-0.0434
X0.3998 Y-0.031
X0.4161 Y-0.0249
X0.4159 Y-0.0002
X0.4149 Y0.0098
X0.4135 Y0.0167
X0.4113 Y0.0233
X0.4079 Y0.0311
X0.4036 Y0.0397
X0.3957 Y0.0462
X0.3901 Y0.0497
X0.3856 Y0.0516
X0.3793 Y0.0531
X0.3698 Y0.0541
X0.3656 Y0.0542
X0.3592 Y0.0538
X0.3517 Y0.0522
X0.3455 Y0.0493
X0.3383 Y0.0446
X0.3338 Y0.0397
X0.3303 Y0.0345
X0.3283 Y0.0286
X0.3273 Y0.0221
X0.3279 Y0.0053
X0.3272 Y-0.0017
X0.3265 Y-0.0056
X0.3242 Y-0.0105
X0.3211 Y-0.0151
X0.3172 Y-0.0183
X0.313 Y-0.0207
X0.3083 Y-0.0218
X0.3034 Y-0.0224
X0.2984 Y-0.0218
X0.2938 Y-0.0205
X0.2897 Y-0.0181
X0.2859 Y-0.0149
X0.2829 Y-0.0102
X0.2806 Y-0.0053
X0.2794 Y0.0016
X0.2791 Y0.0056
X0.2817 Y0.019
X0.2837 Y0.0254
X0.2865 Y0.0313
X0.2912 Y0.0378
X0.2968 Y0.0438
X0.3045 Y0.0512
X0.321 Y0.0607
X0.3295 Y0.0647
X0.3382 Y0.0677
X0.3488 Y0.0699
X0.3597 Y0.0711
X0.3757 Y0.072
X0.3937 Y0.071
X0.4053 Y0.0695
X0.4154 Y0.0669
X0.4281 Y0.0622
X0.4334 Y0.0601
X0.4426 Y0.0537
X0.4485 Y0.0484
X0.453 Y0.0421
X0.4585 Y0.0322
X0.4615 Y0.0181
X0.4632 Y0.0055
X0.4637 Y-0.0119
X0.4638 Y-0.1315
X0.4651 Y-0.1546
X0.4666 Y-0.1607
X0.469 Y-0.1647
X0.4699 Y-0.166
X0.4735 Y-0.1681
X0.4776 Y-0.1689
X0.4817 Y-0.1684
X0.4856 Y-0.1668
X0.4977 Y-0.1568
X0.509 Y-0.1458
Y-0.1619
X0.4966 Y-0.1775
X0.49 Y-0.1846
X0.4828 Y-0.1908
X0.4748 Y-0.1958
X0.4646 Y-0.2001
X0.4494 Y-0.2046
X0.4473 Y-0.2052
X0.4409 Y-0.2045
X0.4349 Y-0.2029
X0.4309 Y-0.2005
X0.4248 Y-0.1954
X0.42 Y-0.1862
X0.4177 Y-0.1795
X0.4164 Y-0.1693
X0.4161 Y-0.1619
X0.39 Y-0.1819
X0.3719 Y-0.194
X0.3651 Y-0.1983
X0.3556 Y-0.2018
X0.3489 Y-0.2037
X0.3389 Y-0.205
X0.3319 Y-0.2055
X0.3192 Y-0.2041
X0.3117 Y-0.2024
X0.3059 Y-0.2003
X0.3006 Y-0.1974
X0.2943 Y-0.1928
X0.2868 Y-0.1867
X0.279 Y-0.1757
X0.275 Y-0.1685
X0.2726 Y-0.1624
X0.2716 Y-0.1583
X0.2709 Y-0.1556 Z0.0003
X0.2703 Y-0.153 Z0.0012
X0.2697 Y-0.1507 Z0.0027
X0.2692 Y-0.1488 Z0.0047
X0.2688 Y-0.1473 Z0.0071
X0.2686 Y-0.1464 Z0.0097
X0.2685 Y-0.1461 Z0.0125
Z0.2
X0.3151 Y-0.131
Z0.08
Z0.0125 F2.
X0.3153 Y-0.1313 Z0.0097 F10.
X0.3156 Y-0.1321 Z0.0071
X0.3163 Y-0.1334 Z0.0047
X0.3171 Y-0.1352 Z0.0027
X0.3181 Y-0.1374 Z0.0012
X0.3192 Y-0.1398 Z0.0003
X0.3204 Y-0.1423 Z0.
X0.323 Y-0.1478
X0.328 Y-0.1556
X0.3299 Y-0.1583
X0.3372 Y-0.1648
X0.3427 Y-0.1683
X0.3479 Y-0.1702
X0.3563 Y-0.1717
X0.3584 Y-0.172
X0.3744 Y-0.1681
X0.3835 Y-0.1649
X0.3907 Y-0.1614
X0.3989 Y-0.1563
X0.4091 Y-0.1487
X0.4161 Y-0.1432
Y-0.0425
X0.3849 Y-0.0553
X0.3599 Y-0.0671
X0.3495 Y-0.0734
X0.3421 Y-0.0786
X0.3334 Y-0.0868
X0.3273 Y-0.0936
X0.3232 Y-0.1006
X0.32 Y-0.1079
X0.3183 Y-0.1158
X0.3175 Y-0.1239
X0.3186 Y-0.1348
X0.3204 Y-0.1423
X0.321 Y-0.145 Z0.0003
X0.3216 Y-0.1476 Z0.0012
X0.3222 Y-0.1499 Z0.0027
X0.3227 Y-0.1518 Z0.0047
X0.323 Y-0.1533 Z0.0071
X0.3232 Y-0.1542 Z0.0097
X0.3233 Y-0.1545 Z0.0125
Z0.2
X0.5054 Y-0.1899
Z0.08
Z0.0125 F2.
X0.5057 Z0.0097 F10.
X0.5067 Z0.0071
X0.5082 Z0.0047
X0.5101 Y-0.1898 Z0.0027
X0.5125 Z0.0012
X0.5151 Y-0.1897 Z0.0003
X0.5179 Y-0.1896 Z0.
X0.5314 Y-0.1893
X0.5366 Y-0.1884
X0.5401 Y-0.1872
X0.5446 Y-0.1847
X0.5509 Y-0.1794
X0.5551 Y-0.1685
X0.5571 Y-0.1604
X0.558 Y-0.1489
X0.5579 Y-0.0132
X0.5564 Y0.0089
X0.5559 Y0.0157
X0.5536 Y0.0233
X0.5507 Y0.0279
X0.5492 Y0.0298
X0.5451 Y0.0321
X0.5436 Y0.0328
X0.5372 Y0.0336
X0.5274 Y0.0323
X0.5179 Y0.0293
X0.5136 Y0.0397
X0.5932 Y0.072
X0.6056
Y0.016
X0.6219 Y0.0343
X0.6317 Y0.0439
X0.6388 Y0.05
X0.648 Y0.0562
X0.6555 Y0.0603
X0.6678 Y0.0651
X0.6853 Y0.0698
X0.6941 Y0.072
X0.707 Y0.0708
X0.7136 Y0.0694
X0.721 Y0.0666
X0.7313 Y0.0611
X0.7405 Y0.0525
X0.7459 Y0.0459
X0.75 Y0.0393
X0.7554 Y0.0273
X0.7565 Y0.024
X0.7595 Y0.011
X0.7614 Y-0.0007
X0.7624 Y-0.0171
X0.7625 Y-0.1286
X0.7626 Y-0.1505
X0.7632 Y-0.159
X0.7651 Y-0.1689
X0.7665 Y-0.1743
X0.7693 Y-0.179
X0.7719 Y-0.1818
X0.7768 Y-0.1856
X0.7846 Y-0.188
X0.7911 Y-0.1892
X0.8023 Y-0.1896
X0.8029
Y-0.2
X0.6722
Y-0.1896
X0.6845 Y-0.1895
X0.6911 Y-0.1888
X0.6974 Y-0.1868
X0.7035 Y-0.184
X0.708 Y-0.1793
X0.71 Y-0.1766
X0.7126 Y-0.1707
X0.7137 Y-0.1674
X0.7148 Y-0.1524
Y-0.0291
X0.7145 Y-0.0171
X0.7134 Y-0.0054
X0.7112 Y0.0041
X0.707 Y0.0162
X0.7055 Y0.0202
X0.6993 Y0.0274
X0.6959 Y0.0304
X0.6921 Y0.0328
X0.6865 Y0.0348
X0.6804 Y0.0358
X0.6739 Y0.0365
X0.6565 Y0.0329
X0.6469 Y0.03
X0.642 Y0.028
X0.6359 Y0.0251
X0.6278 Y0.0197
X0.619 Y0.0122
X0.6056 Y-0.001
X0.6055 Y-0.1487
X0.606 Y-0.1586
X0.6076 Y-0.1683
X0.6088 Y-0.1735
X0.6118 Y-0.1784
X0.6145 Y-0.1815
X0.6189 Y-0.185
X0.6199 Y-0.1857
X0.6284 Y-0.1881
X0.6355 Y-0.1893
X0.6474 Y-0.1896
X0.6486
Y-0.2
X0.5179
Y-0.1896
Y-0.1868 Z0.0003
Y-0.1842 Z0.0012
Y-0.1818 Z0.0027
Y-0.1798 Z0.0047
Y-0.1784 Z0.0071
Y-0.1774 Z0.0097
Y-0.1771 Z0.0125
Z0.6

M9
G53 G0 Z0.
M30
